packages/components/icon/src/assets/icons/info.svg

<?xml version="1.0" encoding="UTF-8"?>
<svg width="24px" height="24px" viewBox="0 0 24 24" version="1.1" xmlns="http://www.w3.org/2000/svg" xmlns:xlink="http://www.w3.org/1999/xlink">
    <g id="icon/UI-library/info" stroke="none" stroke-width="1" fill="none" fill-rule="evenodd">
        <path d="M12,4 C7.6,4 4,7.58095238 4,12 C4,16.4190476 7.6,20 12,20 C16.4190476,20 20,16.4190476 20,12 C20,7.58095238 16.4190476,4 12,4 M13.0285714,6.47619048 C13.352381,6.47619048 13.6,6.60952381 13.7714286,6.8 C13.9428571,6.99047619 14.0190476,7.23809524 14.0190476,7.5047619 C14.0190476,8.19047619 13.4666667,8.81904762 12.7238095,8.81904762 C12.1142857,8.81904762 11.752381,8.38095238 11.752381,7.75238095 C11.752381,7.2 12.1904762,6.4952381 13.0285714,6.47619048 M13.3904762,11.4285714 L12.5142857,15.0095238 C12.4761905,15.1809524 12.4571429,15.3142857 12.4571429,15.3904762 L12.4571429,15.4857143 C12.552381,15.4666667 13.1809524,15.047619 13.5809524,14.6666667 L13.6761905,14.5904762 L14.0190476,15.3142857 L14.0571429,15.3904762 L14,15.447619 C12.8761905,16.6666667 11.5047619,17.4095238 10.9714286,17.4095238 C10.8,17.4095238 10.6095238,17.3714286 10.4761905,17.2190476 C10.3428571,17.0666667 10.2857143,16.8571429 10.2857143,16.5333333 C10.2857143,16.2857143 10.3238095,15.7714286 10.4,15.3904762 L11.2190476,11.9238095 C11.2571429,11.7333333 11.2761905,11.6 11.2761905,11.5238095 C11.1428571,11.5809524 10.5142857,12.0190476 10.2285714,12.2666667 L10.1142857,12.3428571 L9.80952381,11.4857143 L9.86666667,11.4285714 C10.9904762,10.3809524 12.3428571,9.54285714 12.9714286,9.54285714 C13.1428571,9.54285714 13.3142857,9.63809524 13.3904762,9.77142857 C13.4666667,9.92380952 13.5047619,10.1142857 13.5047619,10.3428571 C13.5047619,10.5904762 13.4666667,11.1047619 13.3904762,11.4285714" id="Icon" fill="currentColor"></path>
    </g>
</svg>

<svg viewBox="0 0 24 24" xmlns="http://www.w3.org/2000/svg"><path d="M12 4c-4.4 0-8 3.581-8 8 0 4.419 3.6 8 8 8a8 8 0 0 0 8-8 8 8 0 0 0-8-8m1.029 2.476a.97.97 0 0 1 .742.324c.172.19.248.438.248.705 0 .685-.552 1.314-1.295 1.314-.61 0-.972-.438-.972-1.067 0-.552.438-1.257 1.277-1.276m.361 4.953-.876 3.58a2.026 2.026 0 0 0-.057.381v.096c.095-.02.724-.438 1.124-.82l.095-.076.343.724.038.076-.057.058c-1.124 1.219-2.495 1.962-3.029 1.962-.171 0-.361-.039-.495-.191-.133-.152-.19-.362-.19-.686 0-.247.038-.762.114-1.143l.819-3.466a2.41 2.41 0 0 0 .057-.4c-.133.057-.762.495-1.047.743l-.115.076-.304-.857.057-.057c1.123-1.048 2.476-1.886 3.104-1.886a.5.5 0 0 1 .42.228c.076.153.114.343.114.572a5.8 5.8 0 0 1-.115 1.086" fill="currentColor" fill-rule="evenodd"/></svg>
